img/svg/favorite.svg

<svg width="20" height="18" viewBox="0 0 20 18" xmlns="http://www.w3.org/2000/svg">
<path fill-rule="evenodd" clip-rule="evenodd" d="M9.99907 15.5894C6.16651 13.4065 4.02897 11.2369 2.99533 9.35451C1.9374 7.42785 2.02971 5.80512 2.61675 4.65342C3.8234 2.28614 7.25473 1.52916 9.34537 4.17331L9.99902 5.00002L10.6527 4.17335C12.7437 1.52909 16.1752 2.2862 17.3819 4.65342C17.9689 5.80511 18.0612 7.42782 17.0032 9.35449C15.9694 11.2369 13.8318 13.4065 9.99907 15.5894ZM9.9991 2.42157C7.05809 -0.373102 2.71943 0.781932 1.13186 3.89654C0.260575 5.60588 0.248673 7.81515 1.53441 10.1567C2.80875 12.4775 5.3495 14.9271 9.59594 17.2742L9.99905 17.497L10.4022 17.2742C14.6488 14.9271 17.1896 12.4775 18.4641 10.1567C19.7499 7.81518 19.738 5.6059 18.8667 3.89654C17.2791 0.781873 12.9404 -0.37306 9.9991 2.42157Z" />
</svg>

<svg width="20" height="18" xmlns="http://www.w3.org/2000/svg"><path fill-rule="evenodd" clip-rule="evenodd" d="M10 15.59c-3.833-2.184-5.971-4.353-7.005-6.235-1.058-1.927-.965-3.55-.378-4.702 1.206-2.367 4.638-3.124 6.728-.48L10 5l.654-.827c2.09-2.644 5.522-1.887 6.729.48.587 1.152.68 2.775-.379 4.701-1.034 1.883-3.171 4.053-7.004 6.235zm0-13.168C7.057-.373 2.72.782 1.131 3.897c-.871 1.709-.883 3.918.402 6.26 1.275 2.32 3.815 4.77 8.062 7.117l.403.223.403-.223c4.247-2.347 6.788-4.797 8.062-7.117 1.286-2.342 1.274-4.551.403-6.26C17.279.782 12.94-.373 9.999 2.422z"/></svg>
